X:1
T:Title
%%score ( 1 2 ) ( 3 4 ) ( 5 6 )
L:1/8
Q:1/4=120
M:4/4
K:A
V:1 treble nm="Picked Bass, Treble Voice"
V:2 treble 
V:3 treble nm="Picked Bass, Tenor Voice"
V:4 treble 
V:5 bass nm="Picked Bass, Bass Voice"
V:6 bass 
V:1
 z8 | c2 z2 z2 B2 | c4 e2 c2- | c2 z2 B4 | B2 A4 B2 | z8 | z2 c4 z2 | z4 z2 e2- | e2 z2 c4 | %9
 z2 A2 z4 | F2 c4 B2 | A6 z2 |] %12
V:2
 x8 | z2 A6 | x8 | z2 c4 z2 | x8 | e4 c2 c2- | c2 z2 A4- | [AB-]2 B2 c2 z2 | c4 z2 B2- | %9
 B3 G- [F-G]2 F2 | x8 | x8 |] %12
V:3
 z8 | z2 C6 | z4 C2 E2- | E2 z2 B,4- | [B,D]2 z2 C2 .D2 | A,4[K:bass] G,B, A,2- | A,2 z2 C4 | %7
 B,2 z2[K:treble] z2 C2 | z4 E4 | z2 D4 z2 | DB, A,4 G,B, | A,6 z2 |] %12
V:4
 x8 | A,2 z2 z2 B,2 | A,6 z2 | z2 E4 z2 | z4 z2 z B,- | B,2 z2[K:bass] z4 | z2 A,4 z2 | %7
 z4[K:treble] A,4 | E4 z2 B,2- | B,4 C4 | x8 | x8 |] %12
V:5
 z8 | z2 A,6 | z8 | z4 E,4- | E,2 z2 z4 | E,4 E,2 A,,2- | A,,2 A,,2 E,4 | E,2 A,,4 A,2 | z4 E,4- | %9
 E,4 z4 | F,2 E,4 E,2 | A,,6 z2 |] %12
V:6
 x8 | .A,2 z2 z2 E,2- | [A,,-E,]2 A,,2 C,2 E,2- | E,2 E,2 z4 | D,2 C,4 F,2 | x8 | x8 | x8 | %8
 E,3 E, z4 | z2 D,2 C,4 | x8 | x8 |] %12

